X:1
T:Scheherazade
T:Scheherazade
T:Wyatt Galarneau
C:Wyatt Galarneau
%%score ( 1 2 )
L:1/8
M:4/4
K:D
V:1 treble nm="Piano" snm="Pno."
V:2 treble 
V:1
 [B,B]{/G} (F/E/ F)(E/D/ E){/E}(D/C/ D)B, |{/E} (D/C/D) (C/E/D/C/) B,3- (B,/F/) | %2
{/G} .F/.E/!>!F .E/.D/!>!E{/E} (D/C/D) !>!B,{/E}(D/C/ | D)(C/E/ D/C/) (B,2 C/D/ E)!tenuto!E | %4
 !tenuto!FG (F/A/G/F/ E)!tenuto!E!tenuto!FD | (C/D/B,/D/ E)(E/F/ E/F/)G (F/A/G/F/ | %6
 E)!tenuto!E!tenuto!FD (C/D/B,/D/ E)(E/F/ | E/F/)(G- G/F/) (3(!>!A/G/F/) z (3(G/F/E/){/E} D/>C/ z | %8
{/g} (f/e/f){/f} (e/d/e){/de} (d/c/d) !>!B(d/c/ | d)(c/e/ d/c/) B3- B/f/{/g}.f/.e/ | %10
 !>!f.e/.d/ !>!e{/de}d/c/ .d!>!B (d/c/d) | (c/e/d/c/)!<(! (B2 c/!<)!d/)e (!tenuto!e!tenuto!f) | %12
 (g(f/a/){/a} (g/f/)e (!tenuto!e!tenuto!f)) ((dc/d/ | B/d/)e (e/f/e/f/)) gf/(!>!a/ g/f/e) | %14
 (!tenuto!e!tenuto!f) (d{/ed}c/d/ B/d/)e (e/f/e/f/) | g- g4 z2 B- | %16
 B2!p! c!<(! !tenuto!E!<)! !tenuto!F(G F/A/G/F/) | E!tenuto!E!tenuto!FD C/D/B,/D/ E(E/F/) | %18
 (E/F/)(G F/A/G/F/) E!tenuto!E!tenuto!F(D | C/D/B,/D/)!<(! z z!<)! z G3 | %20
 [^CG]3 [=CG]3 !fermata![^A,G]2- | [A,G] B, .F/.E/!>!F .E/.D/!>!E .D/.C/.D | %22
 .D.D/.C/ !>!D.C/.E/ .D/.C/!<(! B3!<)! | B .F/.E/ !>!F.E/.D/ !>!E.D/.C/ .D.B | %24
 .[Dd]/.c/!>![Dd] .c/.e/.[Dd]/.c/!<(! (B2!<)! c)!>![Dd] | %25
 .c/.e/.[Dd]/.c/ (B2 c)!>![Dd] .c/.e/.[Dd]/.c/ | (B2 c)[B,B]- [B,B]4 |] %27
V:2
 x8 | x8 | x8 | x8 | x8 | x8 | x8 | x8 | x8 | x8 | x8 | x8 | G3 A3 F2- | F A3 G3 A | x2 B2 x (A3 | %15
 G) x4 ^A2 x | FBE x2 B,3 | C2 z x5 | x B,3 z z z z | z B,E!tenuto!E !tenuto!F x3 | x8 | x8 | x8 | %23
 x8 | x8 | x8 | x8 |] %27

